;FLAVOR:Marlin
;TIME:11084
;Filament used: 9.45275m
;Layer height: 0.25
;MINX:60.938
;MINY:86.651
;MINZ:0.2
;MAXX:211.885
;MAXY:150.655
;MAXZ:16.45
;Generated with Cura_SteamEngine 4.8.0
M140 S50
M105
M190 S50
M104 S200
M105
M109 S200
M82 ;absolute extrusion mode
; Ender 3 Custom Start G-code
G92 E0 ; Reset Extruder
G28 ; Home all axes
G1 Z2.0 F3000 ; Move Z Axis up little to prevent scratching of Heat Bed
G1 X0.1 Y20 Z0.3 F5000.0 ; Move to start position
G1 X0.1 Y200.0 Z0.3 F1500.0 E15 ; Draw the first line
G1 X0.4 Y200.0 Z0.3 F5000.0 ; Move to side a little
G1 X0.4 Y20 Z0.3 F1500.0 E30 ; Draw the second line
G92 E0 ; Reset Extruder
G1 Z2.0 F3000 ; Move Z Axis up little to prevent scratching of Heat Bed
G1 X5 Y20 Z0.3 F5000.0 ; Move over to prevent blob squish
G92 E0
G92 E0
G1 F2700 E-5
;LAYER_COUNT:66
;LAYER:0
M107
G0 F6000 X73.08 Y93.466 Z0.2
;TYPE:SKIRT
G1 F2700 E0
G1 F1200 X73.533 Y93.116 E0.01904
G1 X74.963 Y92.093 E0.07752
G1 X75.44 Y91.778 E0.09653
G1 X76.937 Y90.865 E0.15485
G1 X77.428 Y90.589 E0.17359
G1 X78.992 Y89.784 E0.23209
G1 X79.509 Y89.541 E0.25109
G1 X81.124 Y88.854 E0.30946
G1 X81.664 Y88.648 E0.32869
G1 X83.327 Y88.082 E0.38711
G1 X83.869 Y87.919 E0.40594
G1 X85.569 Y87.475 E0.46438
G1 X86.12 Y87.352 E0.48316
G1 X87.848 Y87.032 E0.54161
G1 X88.415 Y86.949 E0.56067
G1 X90.161 Y86.757 E0.61909
G1 X90.73 Y86.715 E0.63806
G1 X92.485 Y86.651 E0.69647
G1 X93.053 Y86.651 E0.71537
G1 X94.81 Y86.715 E0.77384
G1 X95.439 Y86.764 E0.79483
G1 X97.115 Y86.948 E0.85091
G1 X97.686 Y87.032 E0.8701
G1 X99.414 Y87.351 E0.92855
G1 X99.973 Y87.475 E0.94759
G1 X101.673 Y87.92 E1.00604
G1 X102.211 Y88.082 E1.02473
G1 X103.874 Y88.648 E1.08315
G1 X104.413 Y88.854 E1.10235
G1 X106.029 Y89.541 E1.16075
G1 X106.596 Y89.81 E1.18162
G1 X108.105 Y90.586 E1.23806
G1 X108.601 Y90.865 E1.25699
G1 X110.098 Y91.778 E1.31531
G1 X110.574 Y92.093 E1.33429
G1 X112.003 Y93.115 E1.39272
G1 X112.457 Y93.465 E1.41179
G1 X113.807 Y94.589 E1.47022
G1 X114.226 Y94.964 E1.48892
G1 X115.491 Y96.182 E1.54733
G1 X115.894 Y96.601 E1.56666
G1 X117.065 Y97.91 E1.62508
G1 X117.424 Y98.341 E1.64374
G1 X118.498 Y99.731 E1.70216
G1 X118.832 Y100.198 E1.72126
G1 X119.802 Y101.665 E1.77975
G1 X120.095 Y102.145 E1.79845
G1 X120.955 Y103.675 E1.85683
G1 X121.221 Y104.191 E1.87614
G1 X121.965 Y105.781 E1.93453
G1 X122.183 Y106.295 E1.9531
G1 X122.812 Y107.936 E2.01155
G1 X123.001 Y108.489 E2.03098
G1 X123.505 Y110.171 E2.08939
G1 X123.644 Y110.705 E2.10774
G1 X124.028 Y112.419 E2.16616
G1 X124.134 Y112.991 E2.18551
G1 X124.389 Y114.728 E2.2439
G1 X124.451 Y115.288 E2.26264
G1 X124.58 Y117.04 E2.32107
G1 X124.601 Y117.613 E2.34014
G1 X124.601 Y119.373 E2.39868
G1 X124.58 Y119.946 E2.41775
G1 X124.451 Y121.697 E2.47615
G1 X124.389 Y122.256 E2.49485
G1 X124.134 Y123.994 E2.55328
G1 X124.029 Y124.566 E2.57262
G1 X123.767 Y125.736 E2.6125
G1 X124.057 Y125.421 E2.62674
G1 X124.647 Y124.896 E2.65301
G1 X125.288 Y124.435 E2.67927
G1 X125.625 Y124.228 E2.69242
G1 X127.934 Y122.895 E2.7811
G1 X127.764 Y122.725 E2.78909
G1 X127.541 Y122.483 E2.80004
G1 X127.149 Y122.023 E2.82014
G1 X126.945 Y121.764 E2.83111
G1 X126.565 Y121.238 E2.85269
G1 X126.382 Y120.961 E2.86373
G1 X126.082 Y120.467 E2.88295
G1 X125.921 Y120.179 E2.89393
G1 X125.62 Y119.583 E2.91614
G1 X125.485 Y119.284 E2.92705
G1 X125.26 Y118.73 E2.94693
G1 X125.147 Y118.418 E2.95797
G1 X124.953 Y117.804 E2.97939
G1 X124.867 Y117.487 E2.99031
G1 X124.737 Y116.925 E3.0095
G1 X124.674 Y116.599 E3.02054
G1 X124.576 Y115.947 E3.04247
G1 X124.541 Y115.619 E3.05344
G1 X124.501 Y115.029 E3.07311
G1 X124.491 Y114.701 E3.08403
G1 X124.497 Y114.062 E3.10528
G1 X124.514 Y113.732 E3.11627
G1 X124.571 Y113.116 E3.13685
G1 X124.614 Y112.789 E3.14782
G1 X124.722 Y112.164 E3.16891
G1 X124.792 Y111.839 E3.17997
G1 X124.938 Y111.266 E3.19964
G1 X125.031 Y110.952 E3.21053
G1 X125.234 Y110.356 E3.23147
G1 X125.353 Y110.048 E3.24245
G1 X125.606 Y109.465 E3.26359
G1 X125.75 Y109.167 E3.2746
G1 X126.012 Y108.671 E3.29325
G1 X126.176 Y108.386 E3.30419
G1 X126.528 Y107.83 E3.32608
G1 X126.716 Y107.559 E3.33705
G1 X127.104 Y107.046 E3.35844
G1 X127.314 Y106.791 E3.36943
G1 X127.714 Y106.342 E3.38943
G1 X127.943 Y106.104 E3.40041
G1 X128.389 Y105.676 E3.42097
G1 X128.636 Y105.457 E3.43195
G1 X129.142 Y105.045 E3.45366
G1 X129.407 Y104.847 E3.46466
G1 X129.876 Y104.522 E3.48364
G1 X130.153 Y104.345 E3.49457
G1 X130.706 Y104.023 E3.51585
G1 X130.999 Y103.868 E3.52688
G1 X131.562 Y103.599 E3.54763
G1 X131.864 Y103.469 E3.55857
G1 X132.432 Y103.25 E3.57881
G1 X132.746 Y103.143 E3.58985
G1 X133.365 Y102.96 E3.61132
G1 X133.684 Y102.88 E3.62225
G1 X134.283 Y102.755 E3.64261
G1 X134.609 Y102.7 E3.6536
G1 X135.201 Y102.623 E3.67346
G1 X135.531 Y102.593 E3.68448
G1 X136.166 Y102.561 E3.70563
G1 X136.495 Y102.558 E3.71657
G1 X137.112 Y102.577 E3.7371
G1 X137.44 Y102.6 E3.74804
G1 X138.043 Y102.666 E3.76821
G1 X138.372 Y102.715 E3.77928
G1 X139.025 Y102.841 E3.8014
G1 X139.345 Y102.917 E3.81233
G1 X139.918 Y103.076 E3.83211
G1 X140.234 Y103.177 E3.84315
G1 X140.834 Y103.396 E3.86439
G1 X141.137 Y103.521 E3.87529
G1 X141.678 Y103.77 E3.8951
G1 X141.975 Y103.92 E3.90617
G1 X142.5 Y104.21 E3.92612
G1 X142.779 Y104.379 E3.93697
G1 X143.312 Y104.733 E3.95825
G1 X143.58 Y104.927 E3.96925
G1 X144.055 Y105.3 E3.98934
G1 X144.307 Y105.514 E4.00033
G1 X144.785 Y105.955 E4.02196
G1 X145.018 Y106.189 E4.03295
G1 X145.446 Y106.656 E4.05402
G1 X145.66 Y106.909 E4.06504
G1 X146.018 Y107.365 E4.08432
G1 X146.211 Y107.631 E4.09525
G1 X146.568 Y108.168 E4.1167
G1 X146.739 Y108.45 E4.12767
G1 X147.046 Y109.006 E4.14879
G1 X147.194 Y109.302 E4.1598
G1 X147.433 Y109.828 E4.17902
G1 X147.559 Y110.135 E4.19005
G1 X147.782 Y110.752 E4.21187
G1 X147.881 Y111.066 E4.22282
G1 X148.041 Y111.654 E4.24309
G1 X148.115 Y111.974 E4.25402
G1 X148.229 Y112.572 E4.27426
G1 X148.278 Y112.898 E4.28523
G1 X148.346 Y113.515 E4.30587
G1 X148.369 Y113.845 E4.31688
G1 X148.387 Y114.482 E4.33807
G1 X148.383 Y114.812 E4.34905
G1 X148.352 Y115.425 E4.36946
G1 X148.322 Y115.754 E4.38045
G1 X148.242 Y116.363 E4.40088
G1 X148.186 Y116.69 E4.41191
G1 X148.058 Y117.293 E4.43242
G1 X147.977 Y117.612 E4.44336
G1 X147.8 Y118.208 E4.46404
G1 X147.694 Y118.519 E4.47497
G1 X147.466 Y119.11 E4.49604
G1 X147.334 Y119.414 E4.50706
G1 X147.068 Y119.965 E4.52741
G1 X146.914 Y120.255 E4.53833
G1 X146.601 Y120.792 E4.55901
G1 X146.423 Y121.071 E4.57001
G1 X146.084 Y121.56 E4.58981
G1 X145.885 Y121.825 E4.60083
G1 X145.474 Y122.327 E4.62241
G1 X145.255 Y122.573 E4.63336
G1 X144.825 Y123.019 E4.65397
G1 X144.587 Y123.247 E4.66493
G1 X144.126 Y123.655 E4.6854
G1 X143.869 Y123.865 E4.69644
G1 X143.641 Y124.036 E4.70592
G1 X143.975 Y124.229 E4.71875
G1 X144.638 Y124.658 E4.74502
G1 X145.254 Y125.151 E4.77126
G1 X145.817 Y125.705 E4.79753
G1 X146.321 Y126.313 E4.8238
G1 X146.952 Y127.303 E4.86284
G1 X147.317 Y127.985 E4.88857
G1 X147.654 Y128.7 E4.91486
G1 X147.917 Y129.444 E4.94111
G1 X148.103 Y130.212 E4.96739
G1 X148.211 Y130.994 E4.99365
G1 X148.24 Y131.666 E5.01602
G1 X148.24 Y137.235 E5.20124
G1 X148.2 Y138.024 E5.22752
G1 X148.081 Y138.804 E5.25376
G1 X147.883 Y139.569 E5.28005
G1 X147.609 Y140.309 E5.30629
G1 X147.317 Y140.916 E5.32869
G1 X146.952 Y141.598 E5.35442
G1 X146.545 Y142.274 E5.38067
G1 X146.071 Y142.906 E5.40694
G1 X145.536 Y143.487 E5.43321
G1 X144.945 Y144.01 E5.45946
G1 X143.975 Y144.672 E5.49852
G1 X139.109 Y147.481 E5.68539
G1 X138.406 Y147.841 E5.71166
G1 X137.67 Y148.128 E5.73794
G1 X136.909 Y148.339 E5.7642
G1 X136.006 Y148.485 E5.79463
G1 X135.597 Y148.527 E5.8083
G1 X134.808 Y148.568 E5.83458
G1 X134.003 Y148.527 E5.86139
G1 X133.594 Y148.485 E5.87506
G1 X132.814 Y148.365 E5.90131
G1 X132.049 Y148.166 E5.9276
G1 X131.309 Y147.891 E5.95386
G1 X130.492 Y147.482 E5.98425
G1 X125.625 Y144.673 E6.17115
G1 X124.962 Y144.244 E6.19742
G1 X124.346 Y143.75 E6.22368
G1 X123.782 Y143.197 E6.24995
G1 X123.278 Y142.589 E6.27622
G1 X122.838 Y141.933 E6.30249
G1 X122.643 Y141.59 E6.31561
G1 X122.279 Y140.908 E6.34132
G1 X121.943 Y140.193 E6.3676
G1 X121.681 Y139.448 E6.39387
G1 X121.495 Y138.681 E6.42012
G1 X121.388 Y137.898 E6.4464
G1 X121.36 Y137.235 E6.46847
G1 X121.36 Y132.498 E6.62603
G1 X121.22 Y132.797 E6.63701
G1 X120.957 Y133.309 E6.65615
G1 X120.097 Y134.84 E6.71456
G1 X119.803 Y135.321 E6.73331
G1 X118.834 Y136.787 E6.79175
G1 X118.499 Y137.255 E6.8109
G1 X117.425 Y138.645 E6.86932
G1 X117.066 Y139.076 E6.88798
G1 X115.895 Y140.385 E6.94639
G1 X115.492 Y140.804 E6.96573
G1 X114.227 Y142.022 E7.02414
G1 X113.808 Y142.397 E7.04284
G1 X112.458 Y143.521 E7.10127
G1 X112.005 Y143.871 E7.12031
G1 X110.575 Y144.894 E7.17879
G1 X110.098 Y145.209 E7.1978
G1 X108.601 Y146.122 E7.25612
G1 X108.11 Y146.398 E7.27485
G1 X106.546 Y147.203 E7.33336
G1 X106.029 Y147.446 E7.35236
G1 X104.414 Y148.133 E7.41073
G1 X103.874 Y148.339 E7.42995
G1 X102.211 Y148.905 E7.48838
G1 X101.669 Y149.068 E7.50721
G1 X99.969 Y149.512 E7.56564
G1 X99.418 Y149.635 E7.58442
G1 X97.69 Y149.955 E7.64287
G1 X97.123 Y150.038 E7.66193
G1 X95.378 Y150.23 E7.72032
G1 X94.809 Y150.272 E7.7393
G1 X93.053 Y150.336 E7.79774
G1 X92.485 Y150.336 E7.81663
G1 X90.729 Y150.272 E7.87508
G1 X90.1 Y150.223 E7.89606
G1 X88.423 Y150.039 E7.95217
G1 X87.852 Y149.955 E7.97137
G1 X86.124 Y149.636 E8.02981
G1 X85.565 Y149.512 E8.04886
G1 X83.865 Y149.067 E8.1073
G1 X83.327 Y148.905 E8.12599
G1 X81.664 Y148.339 E8.18442
G1 X81.06 Y148.105 E8.20596
G1 X80.918 Y148.043 E8.21112
G1 X79.518 Y147.45 E8.26169
G1 X78.942 Y147.177 E8.28289
G1 X77.433 Y146.401 E8.33932
G1 X76.937 Y146.122 E8.35825
G1 X75.44 Y145.209 E8.41657
G1 X74.963 Y144.894 E8.43558
G1 X73.533 Y143.871 E8.49406
G1 X73.08 Y143.521 E8.5131
G1 X71.73 Y142.397 E8.57153
G1 X71.309 Y142.02 E8.59033
G1 X70.045 Y140.802 E8.64871
G1 X69.646 Y140.388 E8.66783
G1 X68.474 Y139.079 E8.72627
G1 X68.113 Y138.645 E8.74505
G1 X67.039 Y137.255 E8.80347
G1 X66.671 Y136.737 E8.82461
G1 X66.554 Y136.557 E8.83175
G1 X65.74 Y135.328 E8.88078
G1 X65.44 Y134.838 E8.89988
G1 X64.58 Y133.306 E8.95832
G1 X64.319 Y132.797 E8.97734
G1 X63.575 Y131.209 E9.03567
G1 X63.353 Y130.686 E9.05457
G1 X62.725 Y129.044 E9.11304
G1 X62.54 Y128.502 E9.13209
G1 X62.035 Y126.821 E9.19047
G1 X61.893 Y126.277 E9.20917
G1 X61.51 Y124.562 E9.26761
G1 X61.405 Y123.999 E9.28666
G1 X61.149 Y122.261 E9.34509
G1 X61.087 Y121.693 E9.36409
G1 X60.959 Y119.943 E9.42245
G1 X60.938 Y119.374 E9.44139
G1 X60.938 Y117.615 E9.4999
G1 X60.959 Y117.047 E9.5188
G1 X61.087 Y115.295 E9.57723
G1 X61.149 Y114.726 E9.59627
G1 X61.405 Y112.988 E9.6547
G1 X61.51 Y112.425 E9.67374
G1 X61.893 Y110.71 E9.73219
G1 X62.035 Y110.166 E9.75089
G1 X62.54 Y108.485 E9.80927
G1 X62.725 Y107.943 E9.82832
G1 X63.353 Y106.301 E9.88679
G1 X63.575 Y105.778 E9.90569
G1 X64.319 Y104.19 E9.96401
G1 X64.58 Y103.681 E9.98304
G1 X65.44 Y102.149 E10.04147
G1 X65.735 Y101.666 E10.0603
G1 X66.704 Y100.2 E10.11874
G1 X67.039 Y99.732 E10.13789
G1 X68.113 Y98.342 E10.19631
G1 X68.474 Y97.908 E10.21509
G1 X69.646 Y96.599 E10.27352
G1 X70.045 Y96.185 E10.29265
G1 X71.309 Y94.967 E10.35103
G1 X71.73 Y94.59 E10.36983
G1 X73.08 Y93.466 E10.42825
G0 F6000 X73.336 Y93.773
G1 F1200 X73.765 Y93.442 E10.44628
G1 X75.195 Y92.419 E10.50476
G1 X75.648 Y92.119 E10.52283
G1 X77.145 Y91.206 E10.58115
G1 X77.611 Y90.944 E10.59893
G1 X79.175 Y90.139 E10.65743
G1 X79.665 Y89.91 E10.67542
G1 X81.28 Y89.223 E10.7338
G1 X81.793 Y89.027 E10.75206
G1 X83.456 Y88.461 E10.81049
G1 X83.97 Y88.306 E10.82834
G1 X85.67 Y87.862 E10.88678
G1 X86.193 Y87.746 E10.9046
G1 X87.921 Y87.426 E10.96305
G1 X88.459 Y87.346 E10.98114
G1 X90.205 Y87.154 E11.03956
G1 X90.744 Y87.115 E11.05754
G1 X92.499 Y87.051 E11.11595
G1 X93.038 Y87.051 E11.13388
G1 X94.795 Y87.115 E11.19235
G1 X95.393 Y87.161 E11.2123
G1 X95.605 Y87.186 E11.2194
G1 X97.072 Y87.346 E11.26848
G1 X97.613 Y87.425 E11.28667
G1 X99.341 Y87.744 E11.34511
G1 X99.872 Y87.862 E11.3632
G1 X101.572 Y88.307 E11.42165
G1 X102.082 Y88.461 E11.43937
G1 X103.745 Y89.027 E11.4978
G1 X104.256 Y89.222 E11.51599
G1 X105.872 Y89.909 E11.57439
G1 X106.411 Y90.164 E11.59423
G1 X107.922 Y90.942 E11.65075
G1 X108.393 Y91.206 E11.66871
G1 X109.89 Y92.119 E11.72703
G1 X110.342 Y92.418 E11.74506
G1 X111.771 Y93.44 E11.80349
G1 X112.201 Y93.772 E11.82156
G1 X113.551 Y94.896 E11.87998
G1 X113.949 Y95.252 E11.89774
G1 X115.214 Y96.47 E11.95615
G1 X115.596 Y96.867 E11.97448
G1 X116.767 Y98.176 E12.03289
G1 X117.108 Y98.586 E12.05063
G1 X118.182 Y99.976 E12.10905
G1 X118.499 Y100.419 E12.12717
G1 X119.469 Y101.886 E12.18567
G1 X119.747 Y102.341 E12.2034
G1 X120.607 Y103.871 E12.26178
G1 X120.859 Y104.361 E12.2801
G1 X121.603 Y105.951 E12.33849
G1 X121.81 Y106.438 E12.35609
G1 X122.439 Y108.079 E12.41454
G1 X122.618 Y108.604 E12.43299
G1 X123.122 Y110.286 E12.49139
G1 X123.254 Y110.792 E12.50878
G1 X123.638 Y112.506 E12.5672
G1 X123.739 Y113.049 E12.58557
G1 X123.994 Y114.786 E12.64397
G1 X124.052 Y115.318 E12.66177
G1 X124.181 Y117.07 E12.7202
G1 X124.201 Y117.613 E12.73827
G1 X124.201 Y119.373 E12.79681
G1 X124.181 Y119.917 E12.81491
G1 X124.052 Y121.668 E12.87331
G1 X123.994 Y122.198 E12.89104
G1 X123.739 Y123.936 E12.94947
G1 X123.638 Y124.479 E12.96784
G1 X123.254 Y126.194 E13.02629
G1 X123.121 Y126.702 E13.04376
G1 X122.735 Y127.988 E13.08841
G1 X122.996 Y127.5 E13.10682
G1 X123.393 Y126.841 E13.13241
G1 X123.856 Y126.227 E13.15799
G1 X124.38 Y125.664 E13.18357
G1 X124.96 Y125.159 E13.20914
G1 X125.825 Y124.575 E13.24386
G1 X128.591 Y122.979 E13.35007
G1 X128.472 Y122.869 E13.35546
G1 X128.058 Y122.454 E13.37496
G1 X127.835 Y122.212 E13.3859
G1 X127.464 Y121.776 E13.40494
G1 X127.26 Y121.517 E13.41591
G1 X126.899 Y121.017 E13.43642
G1 X126.716 Y120.74 E13.44746
G1 X126.431 Y120.272 E13.46569
G1 X126.27 Y119.984 E13.47666
G1 X125.985 Y119.418 E13.49774
G1 X125.85 Y119.119 E13.50865
G1 X125.636 Y118.594 E13.52751
G1 X125.523 Y118.282 E13.53854
G1 X125.339 Y117.7 E13.55885
G1 X125.253 Y117.383 E13.56977
G1 X125.129 Y116.849 E13.588
G1 X125.066 Y116.523 E13.59905
G1 X124.974 Y115.904 E13.61986
G1 X124.939 Y115.576 E13.63083
G1 X124.9 Y115.017 E13.64947
G1 X124.89 Y114.689 E13.66039
G1 X124.897 Y114.082 E13.68058
G1 X124.914 Y113.752 E13.69157
G1 X124.967 Y113.168 E13.71107
G1 X125.01 Y112.841 E13.72204
G1 X125.113 Y112.248 E13.74206
G1 X125.183 Y111.923 E13.75312
G1 X125.322 Y111.38 E13.77176
G1 X125.415 Y111.066 E13.78265
G1 X125.607 Y110.5 E13.80253
G1 X125.726 Y110.192 E13.81351
G1 X125.966 Y109.639 E13.83356
G1 X126.11 Y109.341 E13.84457
G1 X126.359 Y108.87 E13.86229
G1 X126.523 Y108.585 E13.87323
G1 X126.857 Y108.058 E13.89398
G1 X127.045 Y107.787 E13.90495
G1 X127.413 Y107.301 E13.92522
G1 X127.623 Y107.046 E13.93621
G1 X128.003 Y106.619 E13.95522
G1 X128.232 Y106.381 E13.96621
G1 X128.655 Y105.975 E13.98571
G1 X128.902 Y105.756 E13.99669
G1 X129.382 Y105.365 E14.01728
G1 X129.647 Y105.167 E14.02828
G1 X130.091 Y104.859 E14.04625
G1 X130.368 Y104.682 E14.05719
G1 X130.893 Y104.377 E14.07738
G1 X131.186 Y104.222 E14.08841
G1 X131.72 Y103.966 E14.1081
G1 X132.022 Y103.836 E14.11904
G1 X132.561 Y103.629 E14.13824
G1 X132.875 Y103.522 E14.14928
G1 X133.462 Y103.348 E14.16964
G1 X133.781 Y103.268 E14.18058
G1 X134.35 Y103.149 E14.19991
G1 X134.676 Y103.094 E14.21091
G1 X135.237 Y103.021 E14.22972
G1 X135.567 Y102.991 E14.24075
G1 X136.17 Y102.961 E14.26083
G1 X136.499 Y102.958 E14.27177
G1 X137.084 Y102.976 E14.29124
G1 X137.412 Y102.999 E14.30217
G1 X137.984 Y103.062 E14.32131
G1 X138.313 Y103.111 E14.33237
G1 X138.933 Y103.23 E14.35337
