;FLAVOR:Marlin
;TIME:11467
;Filament used: 9.65522m
;Layer height: 0.25
;MINX:38.513
;MINY:80.141
;MINZ:0.2
;MAXX:189.461
;MAXY:144.145
;MAXZ:16.45
;Generated with Cura_SteamEngine 4.8.0
M140 S50
M105
M190 S50
M104 S200
M105
M109 S200
M82 ;absolute extrusion mode
; Ender 3 Custom Start G-code
G92 E0 ; Reset Extruder
G28 ; Home all axes
G1 Z2.0 F3000 ; Move Z Axis up little to prevent scratching of Heat Bed
G1 X0.1 Y20 Z0.3 F5000.0 ; Move to start position
G1 X0.1 Y200.0 Z0.3 F1500.0 E15 ; Draw the first line
G1 X0.4 Y200.0 Z0.3 F5000.0 ; Move to side a little
G1 X0.4 Y20 Z0.3 F1500.0 E30 ; Draw the second line
G92 E0 ; Reset Extruder
G1 Z2.0 F3000 ; Move Z Axis up little to prevent scratching of Heat Bed
G1 X5 Y20 Z0.3 F5000.0 ; Move over to prevent blob squish
G92 E0
G92 E0
G1 F2700 E-5
;LAYER_COUNT:66
;LAYER:0
M107
G0 F6000 X53.016 Y85.268 Z0.2
;TYPE:SKIRT
G1 F2700 E0
G1 F1200 X54.513 Y84.355 E0.05832
G1 X55.008 Y84.077 E0.0772
G1 X56.572 Y83.273 E0.13569
G1 X57.085 Y83.032 E0.15454
G1 X58.7 Y82.345 E0.21292
G1 X59.236 Y82.14 E0.232
G1 X60.899 Y81.573 E0.29044
G1 X61.445 Y81.409 E0.3094
G1 X63.145 Y80.965 E0.36784
G1 X63.696 Y80.842 E0.38662
G1 X65.424 Y80.522 E0.44507
G1 X65.991 Y80.439 E0.46413
G1 X67.736 Y80.247 E0.52252
G1 X68.37 Y80.203 E0.54366
G1 X68.584 Y80.197 E0.55078
G1 X70.052 Y80.142 E0.59964
G1 X70.629 Y80.141 E0.61883
G1 X72.385 Y80.205 E0.67727
G1 X73.014 Y80.254 E0.69826
G1 X74.691 Y80.438 E0.75437
G1 X75.262 Y80.522 E0.77356
G1 X76.99 Y80.841 E0.83201
G1 X77.549 Y80.965 E0.85105
G1 X79.249 Y81.41 E0.9095
G1 X79.791 Y81.573 E0.92832
G1 X81.454 Y82.14 E0.98676
G1 X82.054 Y82.373 E1.00817
G1 X82.196 Y82.435 E1.01332
G1 X83.596 Y83.028 E1.06389
G1 X84.172 Y83.301 E1.08509
G1 X85.677 Y84.074 E1.14137
G1 X86.177 Y84.355 E1.16044
G1 X87.674 Y85.268 E1.21876
G1 X88.153 Y85.585 E1.23787
G1 X89.582 Y86.608 E1.29632
G1 X90.03 Y86.954 E1.31515
G1 X91.38 Y88.077 E1.37355
G1 X91.807 Y88.459 E1.39261
G1 X93.071 Y89.678 E1.45101
G1 X93.465 Y90.087 E1.4699
G1 X94.637 Y91.395 E1.52832
G1 X95 Y91.831 E1.54719
G1 X96.074 Y93.221 E1.60561
G1 X96.408 Y93.688 E1.62471
G1 X97.378 Y95.155 E1.6832
G1 X97.671 Y95.635 E1.70191
G1 X98.531 Y97.165 E1.76028
G1 X98.797 Y97.681 E1.77959
G1 X99.541 Y99.271 E1.83798
G1 X99.761 Y99.791 E1.85676
G1 X100.389 Y101.433 E1.91523
G1 X100.574 Y101.975 E1.93428
G1 X101.079 Y103.656 E1.99265
G1 X101.221 Y104.2 E2.01135
G1 X101.604 Y105.915 E2.0698
G1 X101.709 Y106.478 E2.08885
G1 X101.965 Y108.215 E2.14725
G1 X102.027 Y108.779 E2.16612
G1 X102.156 Y110.531 E2.22455
G1 X102.177 Y111.104 E2.24362
G1 X102.177 Y112.863 E2.30212
G1 X102.156 Y113.436 E2.32119
G1 X102.027 Y115.187 E2.37959
G1 X101.965 Y115.751 E2.39846
G1 X101.709 Y117.489 E2.45689
G1 X101.605 Y118.051 E2.4759
G1 X101.343 Y119.226 E2.51594
G1 X101.639 Y118.904 E2.53049
G1 X102.23 Y118.381 E2.55674
G1 X103.2 Y117.719 E2.5958
G1 X105.509 Y116.386 E2.68447
G1 X105.328 Y116.204 E2.69301
G1 X105.105 Y115.961 E2.70398
G1 X104.724 Y115.513 E2.72354
G1 X104.52 Y115.254 E2.73451
G1 X104.136 Y114.722 E2.75633
G1 X103.954 Y114.446 E2.76732
G1 X103.658 Y113.958 E2.78631
G1 X103.497 Y113.67 E2.79728
G1 X103.192 Y113.065 E2.81982
G1 X103.057 Y112.765 E2.83076
G1 X102.836 Y112.22 E2.85032
G1 X102.723 Y111.908 E2.86136
G1 X102.531 Y111.3 E2.88256
G1 X102.445 Y110.984 E2.89345
G1 X102.312 Y110.412 E2.91299
G1 X102.249 Y110.085 E2.92406
G1 X102.155 Y109.46 E2.94508
G1 X102.119 Y109.132 E2.95606
G1 X102.075 Y108.495 E2.9773
G1 X102.066 Y108.167 E2.98821
G1 X102.073 Y107.55 E3.00873
G1 X102.09 Y107.221 E3.01969
G1 X102.144 Y106.63 E3.03943
G1 X102.186 Y106.303 E3.05039
G1 X102.297 Y105.655 E3.07226
G1 X102.367 Y105.33 E3.08332
G1 X102.518 Y104.742 E3.10351
G1 X102.612 Y104.427 E3.11444
G1 X102.81 Y103.846 E3.13486
G1 X102.929 Y103.538 E3.14584
G1 X103.173 Y102.974 E3.16628
G1 X103.316 Y102.676 E3.17727
G1 X103.598 Y102.143 E3.19733
G1 X103.763 Y101.858 E3.20828
G1 X104.112 Y101.309 E3.22992
G1 X104.3 Y101.039 E3.24086
G1 X104.668 Y100.552 E3.26116
G1 X104.877 Y100.297 E3.27213
G1 X105.289 Y99.833 E3.29277
G1 X105.518 Y99.595 E3.30375
G1 X105.963 Y99.168 E3.32427
G1 X106.211 Y98.948 E3.33529
G1 X106.718 Y98.535 E3.35704
G1 X106.983 Y98.337 E3.36804
G1 X107.452 Y98.012 E3.38702
G1 X107.729 Y97.835 E3.39796
G1 X108.282 Y97.513 E3.41924
G1 X108.575 Y97.358 E3.43026
G1 X109.138 Y97.089 E3.45102
G1 X109.44 Y96.959 E3.46195
G1 X110.029 Y96.733 E3.48294
G1 X110.343 Y96.627 E3.49396
G1 X110.918 Y96.457 E3.5139
G1 X111.237 Y96.376 E3.52485
G1 X111.859 Y96.245 E3.54599
G1 X112.185 Y96.19 E3.55699
G1 X112.8 Y96.111 E3.57761
G1 X113.13 Y96.082 E3.58863
G1 X113.742 Y96.052 E3.60901
G1 X114.071 Y96.049 E3.61995
G1 X114.688 Y96.068 E3.64048
G1 X115.016 Y96.091 E3.65142
G1 X115.599 Y96.154 E3.67092
G1 X115.927 Y96.202 E3.68195
G1 X116.6 Y96.331 E3.70474
G1 X116.92 Y96.407 E3.71568
G1 X117.486 Y96.564 E3.73521
G1 X117.803 Y96.665 E3.74628
G1 X118.41 Y96.886 E3.76776
G1 X118.713 Y97.011 E3.77867
G1 X119.264 Y97.264 E3.79883
G1 X119.56 Y97.414 E3.80987
G1 X120.065 Y97.694 E3.82907
G1 X120.345 Y97.863 E3.83995
G1 X120.899 Y98.231 E3.86207
G1 X121.166 Y98.425 E3.87305
G1 X121.644 Y98.801 E3.89328
G1 X121.896 Y99.016 E3.90429
G1 X122.348 Y99.435 E3.92479
G1 X122.582 Y99.669 E3.9358
G1 X123.024 Y100.149 E3.9575
G1 X123.237 Y100.401 E3.96848
G1 X123.582 Y100.84 E3.98705
G1 X123.776 Y101.106 E3.998
G1 X124.144 Y101.658 E4.02006
G1 X124.315 Y101.94 E4.03103
G1 X124.622 Y102.496 E4.05216
G1 X124.77 Y102.792 E4.06316
G1 X125.009 Y103.318 E4.08238
G1 X125.135 Y103.625 E4.09342
G1 X125.358 Y104.242 E4.11524
G1 X125.457 Y104.556 E4.12619
G1 X125.619 Y105.149 E4.14663
G1 X125.693 Y105.47 E4.15759
G1 X125.805 Y106.063 E4.17766
G1 X125.854 Y106.389 E4.18863
G1 X125.922 Y107.006 E4.20927
G1 X125.945 Y107.336 E4.22028
G1 X125.963 Y107.973 E4.24147
G1 X125.959 Y108.302 E4.25241
G1 X125.928 Y108.913 E4.27276
G1 X125.898 Y109.243 E4.28378
G1 X125.817 Y109.858 E4.30442
G1 X125.761 Y110.184 E4.31542
G1 X125.628 Y110.805 E4.33654
G1 X125.546 Y111.124 E4.3475
G1 X125.385 Y111.67 E4.36643
G1 X125.28 Y111.982 E4.37738
G1 X125.029 Y112.629 E4.40046
G1 X124.896 Y112.932 E4.41147
G1 X124.648 Y113.445 E4.43042
G1 X124.494 Y113.736 E4.44137
G1 X124.18 Y114.277 E4.46217
G1 X124.003 Y114.555 E4.47313
G1 X123.66 Y115.05 E4.49316
G1 X123.461 Y115.315 E4.50419
G1 X123.05 Y115.817 E4.52576
G1 X122.831 Y116.063 E4.53672
G1 X122.401 Y116.509 E4.55732
G1 X122.162 Y116.738 E4.56833
G1 X121.713 Y117.137 E4.58831
G1 X121.457 Y117.347 E4.59933
G1 X121.218 Y117.526 E4.60926
G1 X121.55 Y117.718 E4.62201
G1 X122.213 Y118.147 E4.64828
G1 X122.829 Y118.641 E4.67454
G1 X123.393 Y119.194 E4.70081
G1 X123.897 Y119.802 E4.72708
G1 X124.337 Y120.458 E4.75335
G1 X124.532 Y120.801 E4.76647
G1 X124.896 Y121.483 E4.79219
G1 X125.232 Y122.198 E4.81846
G1 X125.494 Y122.943 E4.84473
G1 X125.68 Y123.71 E4.87098
G1 X125.787 Y124.493 E4.89726
G1 X125.815 Y125.156 E4.91933
G1 X125.815 Y130.726 E5.10459
G1 X125.775 Y131.515 E5.13087
G1 X125.656 Y132.295 E5.15711
G1 X125.458 Y133.06 E5.18339
G1 X125.184 Y133.8 E5.20964
G1 X124.896 Y134.399 E5.23175
G1 X124.532 Y135.081 E5.25746
G1 X124.126 Y135.758 E5.28371
G1 X123.653 Y136.39 E5.30997
G1 X123.118 Y136.971 E5.33624
G1 X122.528 Y137.496 E5.36251
G1 X121.887 Y137.957 E5.38877
G1 X121.55 Y138.164 E5.40192
G1 X116.683 Y140.973 E5.58882
G1 X115.98 Y141.332 E5.61508
G1 X115.244 Y141.619 E5.64135
G1 X114.483 Y141.83 E5.66762
G1 X113.562 Y141.978 E5.69864
G1 X113.153 Y142.019 E5.71232
G1 X112.364 Y142.058 E5.73859
G1 X111.597 Y142.019 E5.76413
G1 X111.188 Y141.978 E5.77781
G1 X110.407 Y141.86 E5.80408
G1 X109.642 Y141.663 E5.83035
G1 X108.902 Y141.39 E5.85658
G1 X108.066 Y140.972 E5.88767
G1 X103.2 Y138.163 E6.07455
G1 X102.537 Y137.734 E6.10081
G1 X101.921 Y137.241 E6.12705
G1 X101.358 Y136.687 E6.15332
G1 X100.854 Y136.079 E6.17959
G1 X100.223 Y135.089 E6.21864
G1 X99.858 Y134.407 E6.24437
G1 X99.521 Y133.692 E6.27066
G1 X99.258 Y132.948 E6.2969
G1 X99.072 Y132.18 E6.32318
G1 X98.964 Y131.398 E6.34944
G1 X98.935 Y130.726 E6.37181
G1 X98.935 Y125.991 E6.5293
G1 X98.797 Y126.286 E6.54013
G1 X98.533 Y126.8 E6.55935
G1 X97.673 Y128.331 E6.61776
G1 X97.379 Y128.812 E6.63651
G1 X96.41 Y130.278 E6.69495
G1 X96.036 Y130.796 E6.7162
G1 X95.007 Y132.129 E6.77221
G1 X94.638 Y132.572 E6.79139
G1 X93.466 Y133.88 E6.8498
G1 X93.072 Y134.289 E6.86869
G1 X91.808 Y135.508 E6.9271
G1 X91.381 Y135.89 E6.94615
G1 X90.031 Y137.013 E7.00456
G1 X89.584 Y137.359 E7.02336
G1 X88.154 Y138.383 E7.08186
G1 X87.674 Y138.7 E7.10099
G1 X86.177 Y139.613 E7.15931
G1 X85.682 Y139.891 E7.17819
G1 X84.118 Y140.695 E7.23668
G1 X83.605 Y140.936 E7.25553
G1 X81.99 Y141.623 E7.31391
G1 X81.393 Y141.848 E7.33513
G1 X79.8 Y142.392 E7.39111
G1 X79.245 Y142.559 E7.41039
G1 X77.545 Y143.003 E7.46883
G1 X76.99 Y143.126 E7.48774
G1 X75.262 Y143.445 E7.54618
G1 X74.647 Y143.534 E7.56685
G1 X74.451 Y143.554 E7.5734
G1 X72.965 Y143.72 E7.62313
G1 X72.319 Y143.765 E7.64467
G1 X72.105 Y143.771 E7.65179
G1 X70.638 Y143.826 E7.70062
G1 X70.061 Y143.827 E7.71981
G1 X68.304 Y143.763 E7.77829
G1 X67.675 Y143.714 E7.79927
G1 X65.994 Y143.529 E7.85552
G1 X65.432 Y143.446 E7.87442
G1 X63.704 Y143.128 E7.93285
G1 X63.141 Y143.003 E7.95204
G1 X61.441 Y142.558 E8.01048
G1 X60.899 Y142.395 E8.02931
G1 X59.236 Y141.828 E8.08775
G1 X58.701 Y141.623 E8.1068
G1 X57.085 Y140.936 E8.1652
G1 X56.518 Y140.667 E8.18608
G1 X55.013 Y139.894 E8.24235
G1 X54.513 Y139.613 E8.26143
G1 X53.016 Y138.7 E8.31975
G1 X52.536 Y138.383 E8.33888
G1 X51.106 Y137.359 E8.39738
G1 X50.659 Y137.013 E8.41618
G1 X49.309 Y135.89 E8.47458
G1 X48.885 Y135.511 E8.4935
G1 X47.62 Y134.292 E8.55193
G1 X47.221 Y133.878 E8.57105
G1 X46.05 Y132.57 E8.62944
G1 X45.689 Y132.136 E8.64822
G1 X44.615 Y130.746 E8.70664
G1 X44.247 Y130.228 E8.72778
G1 X44.13 Y130.048 E8.73492
G1 X43.316 Y128.819 E8.78395
G1 X43.018 Y128.333 E8.80291
G1 X42.157 Y126.801 E8.86136
G1 X41.891 Y126.283 E8.88073
G1 X41.148 Y124.694 E8.93907
G1 X40.93 Y124.18 E8.95764
G1 X40.301 Y122.538 E9.01612
G1 X40.114 Y121.989 E9.03541
G1 X39.61 Y120.309 E9.09375
G1 X39.469 Y119.771 E9.11225
G1 X39.085 Y118.055 E9.17073
G1 X38.98 Y117.484 E9.19004
G1 X38.725 Y115.746 E9.24847
G1 X38.663 Y115.187 E9.26718
G1 X38.534 Y113.437 E9.32554
G1 X38.513 Y112.864 E9.34461
G1 X38.513 Y111.105 E9.40311
G1 X38.534 Y110.532 E9.42219
G1 X38.663 Y108.781 E9.48058
G1 X38.725 Y108.222 E9.49929
G1 X38.98 Y106.484 E9.55771
G1 X39.085 Y105.913 E9.57702
G1 X39.469 Y104.197 E9.63551
G1 X39.61 Y103.66 E9.65398
G1 X40.114 Y101.979 E9.71234
G1 X40.323 Y101.373 E9.73367
G1 X40.927 Y99.795 E9.78986
G1 X41.15 Y99.269 E9.80887
G1 X41.894 Y97.68 E9.86722
G1 X42.157 Y97.168 E9.88637
G1 X43.017 Y95.637 E9.94477
G1 X43.311 Y95.156 E9.96352
G1 X44.28 Y93.69 E10.02197
G1 X44.615 Y93.222 E10.04111
G1 X45.689 Y91.832 E10.09954
G1 X46.05 Y91.398 E10.11831
G1 X47.221 Y90.09 E10.1767
G1 X47.62 Y89.676 E10.19583
G1 X48.885 Y88.457 E10.25426
G1 X49.309 Y88.078 E10.27317
G1 X50.659 Y86.955 E10.33158
G1 X51.106 Y86.609 E10.35038
G1 X52.536 Y85.585 E10.40888
G1 X53.016 Y85.268 E10.42801
G0 F6000 X53.224 Y85.609
G1 F1200 X54.721 Y84.696 E10.48633
G1 X55.191 Y84.433 E10.50424
G1 X56.755 Y83.629 E10.56273
G1 X57.241 Y83.401 E10.58059
G1 X58.856 Y82.714 E10.63896
G1 X59.365 Y82.519 E10.65709
G1 X61.028 Y81.952 E10.71553
G1 X61.546 Y81.796 E10.73352
G1 X63.246 Y81.352 E10.79196
G1 X63.769 Y81.236 E10.80978
G1 X65.497 Y80.916 E10.86823
G1 X66.035 Y80.836 E10.88632
G1 X67.78 Y80.644 E10.94471
G1 X68.382 Y80.603 E10.96478
G1 X70.067 Y80.541 E11.02086
G1 X70.615 Y80.541 E11.03908
G1 X72.371 Y80.605 E11.09753
G1 X72.968 Y80.651 E11.11744
G1 X73.18 Y80.676 E11.12454
G1 X74.647 Y80.836 E11.17363
G1 X75.189 Y80.915 E11.19184
G1 X76.917 Y81.234 E11.25029
G1 X77.448 Y81.352 E11.26838
G1 X79.148 Y81.797 E11.32683
G1 X79.662 Y81.952 E11.34468
G1 X81.325 Y82.519 E11.40312
G1 X81.894 Y82.739 E11.42341
G1 X82.061 Y82.812 E11.42947
G1 X83.44 Y83.396 E11.47928
G1 X83.987 Y83.655 E11.49941
G1 X84.151 Y83.741 E11.50557
G1 X85.494 Y84.43 E11.55577
G1 X85.969 Y84.696 E11.57388
G1 X87.466 Y85.609 E11.6322
G1 X87.921 Y85.91 E11.65035
G1 X89.35 Y86.933 E11.7088
G1 X89.774 Y87.261 E11.72663
G1 X91.124 Y88.384 E11.78503
G1 X91.529 Y88.746 E11.8031
G1 X92.793 Y89.965 E11.86151
G1 X93.167 Y90.354 E11.87946
G1 X94.339 Y91.662 E11.93787
G1 X94.684 Y92.076 E11.95579
G1 X95.758 Y93.466 E12.01422
G1 X96.075 Y93.909 E12.03234
G1 X97.045 Y95.376 E12.09083
G1 X97.323 Y95.831 E12.10856
G1 X98.183 Y97.361 E12.16694
G1 X98.435 Y97.851 E12.18527
G1 X99.179 Y99.441 E12.24365
G1 X99.388 Y99.934 E12.26146
G1 X100.016 Y101.576 E12.31993
G1 X100.191 Y102.09 E12.33799
G1 X100.696 Y103.771 E12.39637
G1 X100.831 Y104.287 E12.41411
G1 X101.214 Y106.002 E12.47256
G1 X101.313 Y106.536 E12.49062
G1 X101.569 Y108.273 E12.54902
G1 X101.628 Y108.809 E12.56695
G1 X101.757 Y110.561 E12.62538
G1 X101.777 Y111.104 E12.64346
G1 X101.777 Y112.863 E12.70196
G1 X101.757 Y113.407 E12.72007
G1 X101.628 Y115.158 E12.77846
G1 X101.569 Y115.692 E12.79633
G1 X101.313 Y117.43 E12.85476
G1 X101.214 Y117.964 E12.87283
G1 X100.831 Y119.68 E12.9313
G1 X100.696 Y120.198 E12.94911
G1 X100.312 Y121.475 E12.99346
G1 X100.576 Y120.982 E13.01206
G1 X100.973 Y120.324 E13.03762
G1 X101.437 Y119.71 E13.06322
G1 X101.962 Y119.148 E13.0888
G1 X102.543 Y118.644 E13.11438
G1 X103.4 Y118.065 E13.14878
G1 X106.166 Y116.468 E13.25501
G1 X106.059 Y116.37 E13.25983
G1 X105.623 Y115.933 E13.28037
G1 X105.4 Y115.69 E13.29134
G1 X105.039 Y115.266 E13.30986
G1 X104.835 Y115.007 E13.32082
G1 X104.47 Y114.502 E13.34155
G1 X104.288 Y114.226 E13.35254
G1 X104.007 Y113.763 E13.37056
G1 X103.846 Y113.475 E13.38153
G1 X103.557 Y112.901 E13.40291
G1 X103.422 Y112.601 E13.41385
G1 X103.212 Y112.084 E13.43241
G1 X103.099 Y111.772 E13.44344
G1 X102.917 Y111.195 E13.46357
G1 X102.831 Y110.879 E13.47446
G1 X102.705 Y110.336 E13.493
G1 X102.642 Y110.009 E13.50408
G1 X102.552 Y109.416 E13.52402
G1 X102.516 Y109.088 E13.535
G1 X102.475 Y108.484 E13.55514
G1 X102.466 Y108.156 E13.56605
G1 X102.473 Y107.571 E13.58551
G1 X102.49 Y107.242 E13.59646
G1 X102.54 Y106.681 E13.6152
G1 X102.582 Y106.354 E13.62616
G1 X102.688 Y105.739 E13.64692
G1 X102.758 Y105.414 E13.65798
G1 X102.901 Y104.856 E13.67714
G1 X102.995 Y104.541 E13.68807
G1 X103.183 Y103.99 E13.70743
G1 X103.302 Y103.682 E13.71841
G1 X103.533 Y103.148 E13.73777
G1 X103.676 Y102.85 E13.74876
G1 X103.944 Y102.343 E13.76783
G1 X104.109 Y102.058 E13.77879
G1 X104.44 Y101.537 E13.79932
G1 X104.628 Y101.267 E13.81026
G1 X104.978 Y100.805 E13.82954
G1 X105.187 Y100.55 E13.8405
G1 X105.578 Y100.11 E13.86008
G1 X105.807 Y99.872 E13.87107
G1 X106.228 Y99.467 E13.8905
G1 X106.476 Y99.247 E13.90152
G1 X106.958 Y98.855 E13.92219
G1 X107.223 Y98.657 E13.93319
G1 X107.667 Y98.349 E13.95116
G1 X107.944 Y98.172 E13.9621
G1 X108.469 Y97.867 E13.98229
G1 X108.762 Y97.712 E13.99331
G1 X109.296 Y97.456 E14.01301
G1 X109.598 Y97.326 E14.02395
G1 X110.157 Y97.112 E14.04385
G1 X110.471 Y97.006 E14.05488
G1 X111.017 Y96.845 E14.07381
G1 X111.336 Y96.764 E14.08476
G1 X111.926 Y96.639 E14.10482
G1 X112.252 Y96.584 E14.11581
G1 X112.835 Y96.509 E14.13536
G1 X113.165 Y96.48 E14.14638
G1 X113.746 Y96.452 E14.16573
G1 X114.075 Y96.449 E14.17667
G1 X114.66 Y96.467 E14.19614
G1 X114.988 Y96.49 E14.20707
G1 X115.542 Y96.55 E14.22561
G1 X115.87 Y96.598 E14.23663
G1 X116.508 Y96.72 E14.25824
G1 X116.828 Y96.796 E14.26918
G1 X117.364 Y96.945 E14.28768
G1 X117.681 Y97.046 E14.29875
G1 X118.257 Y97.256 E14.31914
G1 X118.56 Y97.381 E14.33004
G1 X119.083 Y97.621 E14.34918
G1 X119.379 Y97.771 E14.36021
G1 X119.858 Y98.037 E14.37844
G1 X120.138 Y98.206 E14.38932
G1 X120.664 Y98.554 E14.41029
G1 X120.931 Y98.748 E14.42127
G1 X121.384 Y99.105 E14.44045
G1 X121.636 Y99.32 E14.45147
G1 X122.066 Y99.717 E14.47094
G1 X122.3 Y99.951 E14.48194
G1 X122.719 Y100.407 E14.50254
G1 X122.932 Y100.659 E14.51351
G1 X123.259 Y101.076 E14.53114
G1 X123.453 Y101.342 E14.54209
G1 X123.802 Y101.865 E14.563
G1 X123.973 Y102.147 E14.57397
G1 X124.264 Y102.675 E14.59402
